public/images/linkedin.svg

<svg height="108" viewBox="0 0 108 108" width="108" xmlns="http://www.w3.org/2000/svg"><path d="m88.307 83.447v-21.082c0-11.295-6.03-16.551-14.069-16.551a12.129 12.129 0 0 0 -11.014 6.073v-5.209h-12.224c.162 3.451 0 36.769 0 36.769h12.224v-20.535a8.334 8.334 0 0 1 .4-2.979 6.685 6.685 0 0 1 6.268-4.469c4.424 0 6.192 3.371 6.192 8.312v19.672h12.22zm-50.181-41.787c4.261 0 6.916-2.826 6.916-6.356-.079-3.605-2.655-6.35-6.835-6.35s-6.914 2.746-6.914 6.346c0 3.53 2.653 6.356 6.755 6.356zm19.874 70.34a54 54 0 1 1 54-54 54 54 0 0 1 -54 54zm-13.763-28.553v-36.769h-12.22v36.769z" fill="#fff" fill-rule="evenodd" transform="translate(-4 -4)"/></svg>

<svg xmlns="http://www.w3.org/2000/svg" width="108" height="108" viewBox="0 0 108 108">
  <path id="iconfinder_linkedin_circle_color_107178" d="M88.307,83.447V62.365c0-11.295-6.03-16.551-14.069-16.551a12.129,12.129,0,0,0-11.014,6.073V46.678H51c.162,3.451,0,36.769,0,36.769H63.224V62.912a8.334,8.334,0,0,1,.4-2.979,6.685,6.685,0,0,1,6.268-4.469c4.424,0,6.192,3.371,6.192,8.312V83.448h12.22ZM38.126,41.66c4.261,0,6.916-2.826,6.916-6.356-.079-3.605-2.655-6.35-6.835-6.35S31.293,31.7,31.293,35.3c0,3.53,2.653,6.356,6.755,6.356ZM58,112a54,54,0,1,1,54-54A54,54,0,0,1,58,112ZM44.237,83.447V46.678H32.017V83.447Z" transform="translate(-4 -4)" fill="#fff" fill-rule="evenodd"/>
</svg>
